X:120
T: Purty Girl
S: "The Roche Collection of Traditional Irish Music" [I/68/177]
L: 1/8
M: 4/4
R: reel
K: Ador
GA | BGAF GE D2 | EAAB A2 GE | DEGA BABd | egdB A2 GA |
BGAF GE D2 | EAAB A2 GE | DEGA B2 d2 | egdB A2 G2 ||
g2 ga g2 ed | eaab a2 ge | dega bage | gedB A2 G2 |
g2 ga g2 ed | eaab a2 ge | dega bage | gedB A2 |]
